X: 35630
T: Sailing In
R: reel
M: 4/4
K: Dmajor
D3 A FA A2|DAFA GE=CE|D2 AG FA A2|GE E2 =CEA,E|
D2 AG FA A2|FADA BGEC|D2 AG FA A2|BGEF G2 FE|
Dd d2 d2 AG|FAdf ecAG|FAdA FAdf|edcB AGFE|
Dd d2 d2 AG|FAdf efge|afge f2 ed|c2 Bd cAGE|

